icons/xing-fill.svg

<svg xmlns="http://www.w3.org/2000/svg" width="24" height="24" fill="none"><g clip-path="url(#a)"><g><path fill="#121212" d="M20.462 3.22998C20.615 3.22998 20.769 3.30798 20.846 3.38498C20.8838 3.45593 20.9036 3.53509 20.9036 3.61548C20.9036 3.69588 20.8838 3.77504 20.846 3.84598L14.769 14.616L18.615 21.692C18.653 21.7631 18.6729 21.8424 18.6729 21.923C18.6729 22.0036 18.653 22.0829 18.615 22.154C18.5099 22.2501 18.3734 22.3049 18.231 22.308H15.461C15.077 22.308 14.846 22 14.692 21.769L10.769 14.615C11 14.308 16.923 3.76998 16.923 3.76998C17.077 3.46298 17.308 3.23198 17.693 3.23198H20.462V3.22998ZM8.92299 6.99998C9.30799 6.99998 9.53799 7.30798 9.69299 7.53798L11.615 10.846C11.462 11 8.61499 16.076 8.61499 16.076C8.46199 16.308 8.23099 16.616 7.84599 16.616H5.15399C5.01121 16.6131 4.87436 16.5584 4.76899 16.462C4.731 16.3909 4.71112 16.3116 4.71112 16.231C4.71112 16.1504 4.731 16.0711 4.76899 16L7.61499 10.846L5.76899 7.61598C5.731 7.54491 5.71112 7.46557 5.71112 7.38498C5.71112 7.30439 5.731 7.22505 5.76899 7.15398C5.87436 7.0576 6.01121 7.00286 6.15399 6.99998H8.92399H8.92299Z"/></g></g><defs><clipPath id="a"><rect width="24" height="24" fill="white"/></clipPath></defs></svg>

<svg width="24" height="24" fill="none" xmlns="http://www.w3.org/2000/svg"><g clip-path="url(#a)"><path d="M20.462 3.23c.153 0 .307.078.384.155a.49.49 0 0 1 0 .461l-6.077 10.77 3.846 7.076a.49.49 0 0 1 0 .462.588.588 0 0 1-.384.154h-2.77c-.384 0-.615-.308-.769-.539l-3.923-7.154C11 14.308 16.923 3.77 16.923 3.77c.154-.307.385-.538.77-.538h2.769V3.23ZM8.923 7c.385 0 .615.308.77.538l1.922 3.308c-.153.154-3 5.23-3 5.23-.153.232-.384.54-.769.54H5.154a.588.588 0 0 1-.385-.154.49.49 0 0 1 0-.462l2.846-5.154-1.846-3.23a.49.49 0 0 1 0-.462A.588.588 0 0 1 6.154 7h2.77-.001Z" /></g><defs><clipPath id="a"><path fill="#fff" d="M0 0h24v24H0z"/></clipPath></defs></svg>
